img/about-hd-large-fill-1.svg

<svg height="29.951546" viewBox="0 0 33.8186958 29.9515458" width="33.818696" xmlns="http://www.w3.org/2000/svg"><path d="m33.8186958 3.54512048c-1.2438939.60121926-2.5818461 1.00779091-3.9853219 1.19092091 1.4330672-.93638172 2.5332316-2.41754642 3.0510804-4.18319609-1.3400658.8661243-2.8259747 1.49498583-4.4059419 1.83475533-1.2660875-1.46964708-3.0690467-2.38760063-5.0643497-2.38760063-3.832081 0-6.9381168 3.38502569-6.9381168 7.56131122 0 .59200517.0612963 1.16903746.1796618 1.72303452-5.7671445-.31558253-10.87905173-3.32628589-14.30108101-7.90108073-.59711134 1.11720821-.93952564 2.41639466-.93952564 3.80196319 0 2.62255988 1.22487089 4.9375996 3.08595599 6.2932223-1.13715364-.0391599-2.2066699-.3789294-3.1419682-.9455958-.00105684.0322493-.00105684.0633469-.00105684.0955962 0 3.6637518 2.3916159 6.7193739 5.56634596 7.4138858-.58231566.1727641-1.19527953.264905-1.82832324.264905-.44704088 0-.88139976-.0472222-1.30519029-.134756.88245659 3.0037928 3.44527964 5.1898352 6.48156437 5.2508785-2.3747065 2.0282512-5.36660424 3.2364486-8.61742637 3.2364486-.56012215 0-1.11178963-.0357046-1.65500243-.1048103 3.07010348 2.1445791 6.71723845 3.3965433 10.6359798 3.3965433 12.7623304 0 19.7406069-11.5222174 19.7406069-21.51374443 0-.32825189-.006341-.65420027-.0200799-.97899688 1.3559183-1.06537896 2.5321749-2.39681472 3.462189-3.91368401" fill="#9b9b9b" fill-rule="evenodd"/></svg>

<?xml version="1.0" encoding="UTF-8"?>
<svg width="33.8186958px" height="29.9515458px" viewBox="0 0 33.8186958 29.9515458" version="1.1" xmlns="http://www.w3.org/2000/svg" xmlns:xlink="http://www.w3.org/1999/xlink">
    <!-- Generator: Sketch 50.2 (55047) - http://www.bohemiancoding.com/sketch -->
    <desc>Created with Sketch.</desc>
    <defs></defs>
    <g id="Page-1" stroke="none" stroke-width="1" fill="none" fill-rule="evenodd">
        <path d="M33.8186958,3.54512048 C32.5748019,4.14633974 31.2368497,4.55291139 29.8333739,4.73604139 C31.2664411,3.79965967 32.3666055,2.31849497 32.8844543,0.552845299 C31.5443885,1.4189696 30.0584796,2.04783113 28.4785124,2.38760063 C27.2124249,0.917953548 25.4094657,0 23.4141627,0 C19.5820817,0 16.4760459,3.38502569 16.4760459,7.56131122 C16.4760459,8.15331639 16.5373422,8.73034868 16.6557077,9.28434574 C10.8885632,8.96876321 5.77665597,5.95805985 2.35462669,1.38326501 C1.75751535,2.50047322 1.41510105,3.79965967 1.41510105,5.1852282 C1.41510105,7.80778808 2.63997194,10.1228278 4.50105704,11.4784505 C3.3639034,11.4392906 2.29438714,11.0995211 1.35908884,10.5328547 C1.358032,10.565104 1.358032,10.5962016 1.358032,10.6284509 C1.358032,14.2922027 3.7496479,17.3478248 6.92437796,18.0423367 C6.3420623,18.2151008 5.72909843,18.3072417 5.09605472,18.3072417 C4.64901384,18.3072417 4.21465496,18.2600195 3.79086443,18.1724857 C4.67332102,21.1762785 7.23614407,23.3623209 10.2724288,23.4233642 C7.8977223,25.4516154 4.90582456,26.6598128 1.65500243,26.6598128 C1.09488028,26.6598128 0.543212801,26.6241082 0,26.5550025 C3.07010348,28.6995816 6.71723845,29.9515458 10.6359798,29.9515458 C23.3983102,29.9515458 30.3765867,18.4293284 30.3765867,8.43780137 C30.3765867,8.10954948 30.3702457,7.7836011 30.3565068,7.45880449 C31.7124251,6.39342553 32.8886817,5.06198977 33.8186958,3.54512048" id="Fill-1" fill="#9B9B9B"></path>
    </g>
</svg>
